Suru++-Ubuntu/apps/symbolic/color-calibate-symbolic.svg

<svg version="1.1" viewBox="0 0 16 16" xmlns="http://www.w3.org/2000/svg">
 <defs>
  <style type="text/css">.ColorScheme-Text { color:#808080; }</style>
 </defs>
 <path class="ColorScheme-Text" d="m8 3a8.999992 9 0 0 0-7.8769531 4.6679688c0.12895299 0.3620309 0.35724999 0.6772031 0.65625 0.9082031a7.999993 8 0 0 1 7.2207031-4.5761719 4 4 0 0 0-4 4 4 4 0 0 0 4 4 4 4 0 0 0 4-4 4 4 0 0 0-3.6503906-3.9824219 7.999993 8 0 0 1 6.8710936 4.5585938c0.301297-0.234172 0.532156-0.5459688 0.660156-0.9179688a8.999992 9 0 0 0-7.880859-4.6582031zm0 2a3 3 0 0 1 3 3 3 3 0 0 1-3 3 3 3 0 0 1-3-3 3 3 0 0 1 3-3z" style="fill:currentColor"/>
 <path class="ColorScheme-Text" d="M8 6A2 2 0 0 0 6 8 2 2 0 0 0 8 10 2 2 0 0 0 10 8 2 2 0 0 0 9.910156 7.412109 1 1 0 0 1 9 8 1 1 0 0 1 8 7 1 1 0 0 1 8.589844 6.089844 2 2 0 0 0 8 6" style="fill:currentColor"/>
</svg>

<svg xmlns="http://www.w3.org/2000/svg" version="1.1" viewBox="0 0 16 16">
 <defs>
  <style id="current-color-scheme" type="text/css">
   .ColorScheme-Text { color:#808080; }
  </style>
 </defs>
 <path style="fill:currentColor;" class="ColorScheme-Text" d="M 8 3 A 8.999992 9 0 0 0 0.12304688 7.6679688 C 0.25199987 8.0299997 0.48029687 8.3451719 0.77929688 8.5761719 A 7.999993 8 0 0 1 8 4 A 4 4 0 0 0 4 8 A 4 4 0 0 0 8 12 A 4 4 0 0 0 12 8 A 4 4 0 0 0 8.3496094 4.0175781 A 7.999993 8 0 0 1 15.220703 8.5761719 C 15.522 8.3419999 15.752859 8.0302031 15.880859 7.6582031 A 8.999992 9 0 0 0 8 3 z M 8 5 A 3 3 0 0 1 11 8 A 3 3 0 0 1 8 11 A 3 3 0 0 1 5 8 A 3 3 0 0 1 8 5 z"/>
 <path style="fill:currentColor;" class="ColorScheme-Text" d="M8 6A2 2 0 0 0 6 8 2 2 0 0 0 8 10 2 2 0 0 0 10 8 2 2 0 0 0 9.910156 7.412109 1 1 0 0 1 9 8 1 1 0 0 1 8 7 1 1 0 0 1 8.589844 6.089844 2 2 0 0 0 8 6"/>
</svg>
